src/Pure-Dark/16/symbolic/places/mail-folder-inbox-symbolic.svg

<?xml version="1.0" encoding="UTF-8" standalone="no"?>
<svg
   width="16"
   height="16"
   version="1.1"
   id="svg1"
   sodipodi:docname="mail-inbox-symbolic.svg"
   inkscape:version="1.4.2 (ebf0e940d0, 2025-05-08)"
   xmlns:inkscape="http://www.inkscape.org/namespaces/inkscape"
   xmlns:sodipodi="http://sodipodi.sourceforge.net/DTD/sodipodi-0.dtd"
   xmlns="http://www.w3.org/2000/svg"
   xmlns:svg="http://www.w3.org/2000/svg">
  <defs
     id="defs1">
     <style
        id="current-color-scheme"
        type="text/css">
        .ColorScheme-Text { color:#f2f2f2; }
     </style>
  </defs>
  <sodipodi:namedview
     id="namedview1"
     pagecolor="#ffffff"
     bordercolor="#000000"
     borderopacity="0.25"
     inkscape:showpageshadow="2"
     inkscape:pageopacity="0.0"
     inkscape:pagecheckerboard="0"
     inkscape:deskcolor="#d1d1d1"
     inkscape:zoom="49.6875"
     inkscape:cx="8"
     inkscape:cy="8"
     inkscape:window-width="1920"
     inkscape:window-height="1010"
     inkscape:window-x="0"
     inkscape:window-y="0"
     inkscape:window-maximized="1"
     inkscape:current-layer="svg1" />
  <path
     id="path1"
     style="fill:currentColor"
     class="ColorScheme-Text"
     d="M 7.5 1 C 7.2230047 1.0000054 7 1.2230034 7 1.5 L 7 6.2929688 L 5.7324219 5.0253906 C 5.5365519 4.8295206 5.2212606 4.8295206 5.0253906 5.0253906 C 4.8295206 5.2212606 4.8295206 5.5365519 5.0253906 5.7324219 L 7.1464844 7.8535156 C 7.1934964 7.9005276 7.24972 7.9375806 7.3125 7.9628906 C 7.370404 7.9862266 7.43355 8 7.5 8 C 7.566453 8 7.6296 7.9862256 7.6875 7.9628906 C 7.750278 7.9375906 7.8064956 7.9005376 7.8535156 7.8535156 L 9.9746094 5.7324219 C 10.170479 5.5365519 10.170479 5.2212606 9.9746094 5.0253906 C 9.7787394 4.8295206 9.4634481 4.8295206 9.2675781 5.0253906 L 8 6.2929688 L 8 1.5 C 8 1.2230033 7.7769954 1.0000053 7.5 1 z M 5 3.0292969 C 3.8592232 3.1644191 3.1163747 3.8760845 2.8300781 4.25 L 0.20507812 7.6777344 C 0.071918125 7.8522144 -0.00015 8.0656662 0 8.2851562 L 0 8.5 L 0 9 L 0 12 C 0 13.108 0.892 14 2 14 L 13 14 C 14.108 14 14.9979 13.108 15 12 L 15 9 L 15 8.5 L 15 8.2851562 C 15.000148 8.0656662 14.928084 7.8522144 14.794922 7.6777344 L 12.169922 4.25 C 11.883642 3.87608 11.1408 3.1643969 10 3.0292969 L 10 4.0449219 C 10.76278 4.1492919 11.1244 4.5300919 11.375 4.8574219 L 13.78125 8 L 11.583984 8 L 10.958984 8 L 10 8 L 9.9492188 8 A 2.5 2.5 0 0 1 7.5 10 A 2.5 2.5 0 0 1 5.0546875 8 L 4.7792969 8 L 4.0390625 8 L 1.21875 8 L 3.625 4.8574219 C 3.87561 4.5300919 4.23722 4.1492919 5 4.0449219 L 5 3.0292969 z M 1 9 L 4.3417969 9 A 3.5 3.5 0 0 0 7.5 11 A 3.5 3.5 0 0 0 10.652344 9 L 10.658203 9 L 11.583984 9 L 14 9 L 14 12 C 14 12.554 13.554 13 13 13 L 2 13 C 1.446 13 1 12.554 1 12 L 1 9 z " />
</svg>

<svg width="16" height="16" version="1.1" xmlns="http://www.w3.org/2000/svg">
 <path d="m7.5 1c-0.277 0-0.5 0.223-0.5 0.5v4.793l-1.2676-1.2676c-0.19587-0.19587-0.51116-0.19587-0.70703 0s-0.19587 0.51116 0 0.70703l2.1211 2.1211c0.047012 0.047012 0.10324 0.08407 0.16602 0.10938 0.057904 0.023336 0.12105 0.037109 0.1875 0.037109 0.066453 0 0.1296-0.013774 0.1875-0.037109 0.062778-0.0253 0.119-0.062358 0.16602-0.10938l2.1211-2.1211c0.19587-0.19587 0.19587-0.51116 0-0.70703-0.19587-0.19587-0.51116-0.19587-0.70703 0l-1.2676 1.2676v-4.793c0-0.277-0.223-0.5-0.5-0.5zm-2.5 2.0293c-1.1408 0.13511-1.8836 0.84678-2.1699 1.2207l-2.625 3.4277c-0.13316 0.17448-0.20523 0.38793-0.20508 0.60742v0.21484 0.5 3c0 1.108 0.892 2 2 2h11c1.108 0 1.9979-0.892 2-2v-3-0.5-0.21484c1.48e-4 -0.21949-0.071918-0.43294-0.20508-0.60742l-2.625-3.4277c-0.28628-0.37392-1.0291-1.0856-2.1699-1.2207v1.0156c0.76278 0.10437 1.1244 0.48517 1.375 0.8125l2.4062 3.1426h-2.1973-0.625-0.95898-0.050781a2.5 2.5 0 0 1-2.4492 2 2.5 2.5 0 0 1-2.4453-2h-0.27539-0.74023-2.8203l2.4062-3.1426c0.25061-0.32733 0.61222-0.70813 1.375-0.8125v-1.0156zm-4 5.9707h3.3418a3.5 3.5 0 0 0 3.1582 2 3.5 3.5 0 0 0 3.1523-2h0.005859 0.92578 2.416v3c0 0.554-0.446 1-1 1h-11c-0.554 0-1-0.446-1-1v-3z" fill="#f2f2f2"/>
</svg>
